icons/ArrowCornerRightUp.svg

<svg width="24" height="24" viewBox="0 0 24 24" fill="none" xmlns="http://www.w3.org/2000/svg">
<path fill-rule="evenodd" clip-rule="evenodd" d="M15.4697,4.4697c0.2929,-0.29289 0.7677,-0.29289 1.0606,0l4,4c0.2929,0.29289 0.2929,0.76777 0,1.06066c-0.2929,0.29289 -0.7677,0.29289 -1.0606,0l-2.7197,-2.71967v9.68931c0,1.5188 -1.2312,2.75 -2.75,2.75h-11c-0.41421,0 -0.75,-0.3358 -0.75,-0.75c0,-0.4142 0.33579,-0.75 0.75,-0.75h11c0.6904,0 1.25,-0.5596 1.25,-1.25v-9.68931l-2.7197,2.71967c-0.2929,0.29289 -0.7677,0.29289 -1.0606,0c-0.2929,-0.29289 -0.2929,-0.76777 0,-1.06066z" fill="#002B51"/>
</svg>

<svg width="24" height="24" viewBox="0 0 24 24" fill="none" xmlns="http://www.w3.org/2000/svg">
<path fill-rule="evenodd" clip-rule="evenodd" d="M15.4697 4.4697C15.7626 4.17681 16.2374 4.17681 16.5303 4.4697L20.5303 8.4697C20.8232 8.76259 20.8232 9.23747 20.5303 9.53036C20.2374 9.82325 19.7626 9.82325 19.4697 9.53036L16.75 6.81069L16.75 16.5C16.75 18.0188 15.5188 19.25 14 19.25L3 19.25C2.58579 19.25 2.25 18.9142 2.25 18.5C2.25 18.0858 2.58579 17.75 3 17.75L14 17.75C14.6904 17.75 15.25 17.1904 15.25 16.5L15.25 6.81069L12.5303 9.53036C12.2374 9.82325 11.7626 9.82325 11.4697 9.53036C11.1768 9.23747 11.1768 8.76259 11.4697 8.4697L15.4697 4.4697Z" fill="#002B51"/>
</svg>
